X:1
T:Title
%%score { ( 1 3 ) | ( 2 4 ) }
L:1/8
M:6/8
K:F
V:1 treble nm="Grand Piano"
V:3 treble 
V:2 bass 
V:4 bass 
V:1
 z3 z2[Q:1/4=100] F | F2 G A2 [GB] | [Ac]2 [Bd] [Ac]2 [FA] | [EG]2 [FA] [GB][FA][EG] | %4
[M:5/8] F3 C2 |[M:1/8] C |[M:3/4] F2 G A2 [GB] | [Ac]2 [Bd] [Ac]2 [CFA] | z E [F=B] [Gc]2 [Ad] | %9
 [Ge]2 [Fd] [Ec]3 |[M:1/8] [Ec] |[M:3/4] [Ed]2 [Ed] [Ed]2 [EG] | [Ed]2 [Ed] [Ed]2 [Ed] | %13
 d2 d d2 A |[M:5/8] c2 c c2 |[M:1/8] c |[M:3/4] d2 df e[Fd] | c2 d c2 A | [Ac]2 [Fc] [Ec]2 E | F6 | %20
 c4 z2 | c6 | [DF]2 [DF] [DF]2 [DG] | [CF]3 .[FA]3 | E2 E [Ed]2 [Ed] | d6 | c2 c c2 c | c6 | %28
 f4 z2 | c6 | d4 z2 |[M:5/8] B-B- B3 |[M:1/8] A |[M:3/4] G2 A B2 [Gd] | d2 c c2 A | %35
 [Ac]2 [Fc] [Ec]2 E |[M:5/8] F-F- F3 |] %37
V:2
 z3 z2 [F,A,] | [F,A,]2 [F,B,F] [F,CF]2 [F,C] | [F,F]2 [F,F] [F,F]2 [F,C] | %3
 [C,C]2 [C,C] [C,C]2 [C,B,] |[M:5/8] [F,A,C]3 [F,A,]2 |[M:1/8] [F,A,] | %6
[M:3/4] [F,A,C]2 [F,B,C] [F,CF]2 [F,C] | [F,F]2 [F,F] [F,F]2 F, | E,C, [D,G,] [E,C]2 [F,C] | %9
 [G,C]2 [G,=B,] [C,C]3 |[M:1/8] [C,C] |[M:3/4] [C,B,]2 [C,B,] [C,B,]2 [C,B,] | %12
 [C,B,]2 [C,B,] [C,B,]2 [C,B,] | [F,A,F]2 [F,A,F] [F,A,F]2 [F,CF] | %14
[M:5/8] [F,A,F]2 [F,A,F] [F,A,F]2 |[M:1/8] [F,A,F] |[M:3/4] [B,F]2 [B,F][K:bass]D C[D,B,] | %17
 [F,A,F]2 [F,B,F] [F,A,F]2 [F,CF] | [C,C]2 [C,A,] [C,G,]2 [C,B,C] | [F,A,C]6 | %20
 [F,A,F]2 [F,A,] [C,G,]2 [C,B,] | [F,A,F]2 [F,A,] [F,A,]2 [F,C_E] | %22
 [B,,B,]2 [B,,B,] [B,,B,]2 [B,,B,] | [F,A,]3 .[F,C]3 | [C,C]2 [C,C] [C,C]2 [C,C] | %25
 [C,B,]2 [C,B,] [C,B,]2[K:treble] [B,CE] | [A,CF]2 [A,CF] [G,B,E]2 [G,B,E] | [F,A,F]6 | %28
 [F,C]2[K:treble] [A,C] [B,F]2 [B,F] | [F,A,F]2 [F,A,] .[F,A,]3 | [D,A,]2 [D,D] [^F,D]2 [F,D] | %31
[M:5/8][K:treble] [G,DG]2 [G,D] [G,D]2 |[M:1/8] [A,D^F] | %33
[M:3/4] [B,D]2 [A,D^F] [G,DG]2[K:bass] [E,B,] | [F,B,F]2 [F,A,F] [F,A,F]2 [F,CF] | %35
 [C,C]2 [C,A,] [C,G,]2 [C,B,C] |[M:5/8] [F,A,C]-[F,A,C]- [F,A,C]3 |] %37
V:3
 x6 | x6 | x6 | x6 |[M:5/8] x5 |[M:1/8] x |[M:3/4] x6 | x6 | [CG]2 z2 z2 | x6 |[M:1/8] x | %11
[M:3/4] x6 | x6 | x6 |[M:5/8] x5 |[M:1/8] x |[M:3/4] x6 | x6 | x6 | x6 | z2 F [Ec]2 [Ed] | %21
 z2 F F2 A | x6 | x6 | G4 z2 | E2 E E2 G | x6 | x6 | A2 F e2 d | z2 F .F3 | ^F2 F A2 [Ac] | %31
[M:5/8] z2 G G2 |[M:1/8] x |[M:3/4] x6 | x6 | x6 |[M:5/8] x5 |] %37
V:4
 x6 | x6 | x6 | x6 |[M:5/8] x5 |[M:1/8] x |[M:3/4] x6 | x6 | x6 | x6 |[M:1/8] x |[M:3/4] x6 | x6 | %13
 x6 |[M:5/8] x5 |[M:1/8] x |[M:3/4] z2 z[K:bass] .[B,,F]3 | x6 | x6 | x6 | x6 | x6 | x6 | x6 | x6 | %25
 x5[K:treble] x | x6 | x6 | x2[K:treble] x4 | x6 | x6 |[M:5/8][K:treble] x5 |[M:1/8] x | %33
[M:3/4] x5[K:bass] x | x6 | x6 |[M:5/8] x5 |] %37

